svg/part/hand_two_fingers_line.svg

<?xml version="1.0" encoding="UTF-8"?>
<svg width="24px" height="24px" viewBox="0 0 24 24" version="1.1" xmlns="http://www.w3.org/2000/svg" xmlns:xlink="http://www.w3.org/1999/xlink">
    <title>hand_two_fingers_line</title>
    <g id="Icon" stroke="none" stroke-width="1" fill="none" fill-rule="evenodd">
        <g id="Part" transform="translate(-144.000000, -96.000000)">
            <g id="hand_two_fingers_line" transform="translate(144.000000, 96.000000)">
                <path d="M24,0 L24,24 L0,24 L0,0 L24,0 Z M12.5934901,23.257841 L12.5819402,23.2595131 L12.5108777,23.2950439 L12.4918791,23.2987469 L12.4918791,23.2987469 L12.4767152,23.2950439 L12.4056548,23.2595131 C12.3958229,23.2563662 12.3870493,23.2590235 12.3821421,23.2649074 L12.3780323,23.275831 L12.360941,23.7031097 L12.3658947,23.7234994 L12.3769048,23.7357139 L12.4804777,23.8096931 L12.4953491,23.8136134 L12.4953491,23.8136134 L12.5071152,23.8096931 L12.6106902,23.7357139 L12.6232938,23.7196733 L12.6232938,23.7196733 L12.6266527,23.7031097 L12.609561,23.275831 C12.6075724,23.2657013 12.6010112,23.2592993 12.5934901,23.257841 L12.5934901,23.257841 Z M12.8583906,23.1452862 L12.8445485,23.1473072 L12.6598443,23.2396597 L12.6498822,23.2499052 L12.6498822,23.2499052 L12.6471943,23.2611114 L12.6650943,23.6906389 L12.6699349,23.7034178 L12.6699349,23.7034178 L12.678386,23.7104931 L12.8793402,23.8032389 C12.8914285,23.8068999 12.9022333,23.8029875 12.9078286,23.7952264 L12.9118235,23.7811639 L12.8776777,23.1665331 C12.8752882,23.1545897 12.8674102,23.1470016 12.8583906,23.1452862 L12.8583906,23.1452862 Z M12.1430473,23.1473072 C12.1332178,23.1423925 12.1221763,23.1452606 12.1156365,23.1525954 L12.1099173,23.1665331 L12.0757714,23.7811639 C12.0751323,23.7926639 12.0828099,23.8018602 12.0926481,23.8045676 L12.108256,23.8032389 L12.3092106,23.7104931 L12.3186497,23.7024347 L12.3186497,23.7024347 L12.3225043,23.6906389 L12.340401,23.2611114 L12.337245,23.2485176 L12.337245,23.2485176 L12.3277531,23.2396597 L12.1430473,23.1473072 Z" id="MingCute" fill-rule="nonzero"></path>
                <path d="M17.6123,9.16218 C17.169,8.46363 16.3887,8 15.5,8 C15.3288,8 15.1616,8.01722 15,8.05001 L15,3.5 C15,2.11929 13.8807,1 12.5,1 C11.2701,1 10.2476,1.88823 10.0389,3.05823 C9.86538,3.0201 9.68505,3 9.50003,3 C8.11932,3 7.00003,4.11929 7.00003,5.5 L7.00003,10.4616 C6.71472,10.2252 6.42689,10.0287 6.13061,9.87812 C5.10996,9.35949 4.11856,9.43909 3.07624,9.86637 C2.23578,10.2109 1.96875,11.1735 2.32921,11.8944 L5.17085,17.5777 C6.52599,20.288 9.29609,22 12.3263,22 L13,22 C17.4183,22 21,18.4183 21,14 C21,13.1667 21,12.3333 21,11.5 C21,10.1193 19.8807,9 18.5,9 C18.1874,9 17.8882,9.05738 17.6123,9.16218 Z M10,5.5 C10,5.22386 9.77617,5 9.50003,5 C9.22389,5 9.00003,5.22386 9.00003,5.5 L9.00003,13 C9.00003,13.4247 8.73179,13.8031 8.33104,13.9436 C7.93029,14.0842 7.48446,13.9563 7.21916,13.6247 C6.29456,12.4689 5.70331,11.9044 5.22459,11.6611 C4.97702,11.5353 4.73139,11.4801 4.3899,11.5437 L6.95971,16.6833 C7.97606,18.716 10.0536,20 12.3263,20 L13,20 C16.3137,20 19,17.3137 19,14 C19,13.1667 19,12.3333 19,11.5 C19,11.2239 18.7762,11 18.5,11 C18.2239,11 18,11.2239 18,11.5 L18,12 C18,12.5523 17.5523,13 17,13 C16.4477,13 16,12.5523 16,12 L16,10.5 C16,10.2239 15.7762,10 15.5,10 C15.2244,10 15.0008,10.2231 15,10.4986 L15,11 C15,11.5523 14.5523,12 14,12 C13.4477,12 13,11.5523 13,11 L13,3.5 C13,3.22386 12.7762,3 12.5,3 C12.2239,3 12,3.22386 12,3.5 L12,12 C12,12.5523 11.5523,13 11,13 C10.4477,13 10,12.5523 10,12 L10,5.5 Z" id="形状" fill="#09244B"></path>
            </g>
        </g>
    </g>
</svg>

<svg xmlns="http://www.w3.org/2000/svg" width="24" height="24"><g fill="none" fill-rule="evenodd"><path d="M24 0v24H0V0h24ZM12.593 23.258l-.011.002-.071.035-.02.004-.014-.004-.071-.035c-.01-.004-.019-.001-.024.005l-.004.01-.017.428.005.02.01.013.104.074.015.004.012-.004.104-.074.012-.016.004-.017-.017-.427c-.002-.01-.009-.017-.017-.018Zm.265-.113-.013.002-.185.093-.01.01-.003.011.018.43.005.012.008.007.201.093c.012.004.023 0 .029-.008l.004-.014-.034-.614c-.003-.012-.01-.02-.02-.022Zm-.715.002a.023.023 0 0 0-.027.006l-.006.014-.034.614c0 .012.007.02.017.024l.015-.002.201-.093.01-.008.004-.011.017-.43-.003-.012-.01-.01-.184-.092Z"/><path fill="#09244B" d="M17.612 9.162A2.498 2.498 0 0 0 15 8.05V3.5a2.5 2.5 0 0 0-4.961-.442A2.5 2.5 0 0 0 7 5.5v4.962a4.734 4.734 0 0 0-.87-.584C5.11 9.36 4.12 9.44 3.077 9.866c-.84.345-1.107 1.308-.747 2.028l2.842 5.684A8 8 0 0 0 12.326 22H13a8 8 0 0 0 8-8v-2.5a2.5 2.5 0 0 0-3.388-2.338ZM10 5.5a.5.5 0 1 0-1 0V13a1 1 0 0 1-1.78.625c-.925-1.156-1.517-1.72-1.995-1.964a1.214 1.214 0 0 0-.835-.117l2.57 5.14A6 6 0 0 0 12.326 20H13a6 6 0 0 0 6-6v-2.5a.5.5 0 1 0-1 0v.5a1 1 0 1 1-2 0v-1.5a.5.5 0 0 0-1-.001V11a1 1 0 1 1-2 0V3.5a.5.5 0 1 0-1 0V12a1 1 0 1 1-2 0V5.5Z"/></g></svg>
